img/phone-icon.svg

<svg width="20" height="20" viewBox="0 0 20 20" fill="none" xmlns="http://www.w3.org/2000/svg">
<path d="M4.05291 13.2947C6.03304 15.6527 8.41667 17.5093 11.1373 18.823C12.1731 19.3121 13.5583 19.8923 15.1017 19.9917C15.1974 19.9959 15.2889 20 15.3846 20C16.4204 20 17.2524 19.6436 17.9304 18.9101C17.9346 18.9059 17.9429 18.8976 17.9471 18.8893C18.1883 18.5993 18.4629 18.3382 18.7499 18.0605C18.9455 17.874 19.1451 17.6792 19.3365 17.4803C20.2226 16.5603 20.2226 15.3916 19.3282 14.5006L16.828 12.0099C16.4037 11.5707 15.8962 11.3386 15.3638 11.3386C14.8313 11.3386 14.3196 11.5707 13.8828 12.0058L12.3936 13.4894C12.2563 13.4107 12.1149 13.3402 11.9817 13.2739C11.8153 13.191 11.6614 13.1123 11.5241 13.0253C10.168 12.1674 8.93667 11.0485 7.75941 9.61044C7.16454 8.86034 6.76518 8.23042 6.48647 7.58807C6.8775 7.23581 7.24358 6.86697 7.59717 6.50642C7.72197 6.37795 7.85092 6.24948 7.97988 6.12101C8.42915 5.67344 8.67043 5.15541 8.67043 4.62909C8.67043 4.10278 8.43331 3.58475 7.97988 3.13717L6.74022 1.9022C6.59463 1.75715 6.45735 1.61625 6.31591 1.4712C6.04136 1.18939 5.75432 0.899296 5.47145 0.63821C5.04297 0.219644 4.53962 0 4.00715 0C3.47884 0 2.97133 0.219644 2.52622 0.642354L0.970403 2.19229C0.404653 2.75591 0.084338 3.4397 0.0177792 4.23125C-0.0612595 5.22172 0.121777 6.27435 0.596009 7.54662C1.324 9.51513 2.42222 11.3427 4.05291 13.2947ZM1.0328 4.31828C1.08272 3.76709 1.29488 3.30709 1.69423 2.90924L3.24172 1.36759C3.483 1.13552 3.74924 1.01533 4.00715 1.01533C4.26091 1.01533 4.51882 1.13552 4.75594 1.37588C5.03465 1.63282 5.29673 1.9022 5.5796 2.18815C5.72104 2.3332 5.86664 2.47824 6.01224 2.62743L7.25189 3.86241C7.50981 4.11935 7.64293 4.38044 7.64293 4.63738C7.64293 4.89432 7.50981 5.15541 7.25189 5.41235C7.12294 5.54082 6.99398 5.67344 6.86502 5.80191C6.47815 6.19146 6.11623 6.5603 5.71688 6.91256C5.70856 6.92085 5.7044 6.92499 5.69608 6.93328C5.35081 7.27725 5.40489 7.60464 5.48809 7.85329C5.49225 7.86573 5.49641 7.87402 5.50057 7.88645C5.82088 8.65313 6.26599 9.38251 6.9607 10.2528C8.20868 11.7862 9.52322 12.9755 10.9709 13.8914C11.1497 14.0075 11.3411 14.0986 11.52 14.1898C11.6864 14.2727 11.8403 14.3514 11.9776 14.4385C11.9942 14.4467 12.0067 14.455 12.0233 14.4633C12.1606 14.5338 12.2937 14.5669 12.4268 14.5669C12.7596 14.5669 12.976 14.3556 13.0467 14.2851L14.6025 12.7352C14.8438 12.4948 15.1058 12.3663 15.3638 12.3663C15.6799 12.3663 15.9378 12.5611 16.1001 12.7352L18.6085 15.23C19.1077 15.7273 19.1035 16.2661 18.596 16.7924C18.4213 16.9789 18.2383 17.1571 18.0427 17.3436C17.7516 17.6254 17.4479 17.9155 17.1733 18.2429C16.6949 18.7567 16.125 18.9971 15.3887 18.9971C15.318 18.9971 15.2431 18.993 15.1724 18.9888C13.8079 18.9018 12.5392 18.3713 11.5865 17.9196C8.99906 16.6722 6.72774 14.9026 4.8433 12.6564C3.29164 10.7957 2.2475 9.06341 1.55695 7.2068C1.12848 6.06714 0.966243 5.15126 1.0328 4.31828Z" fill="#FF7010"/>
</svg>

<svg width="20" height="20" fill="none" xmlns="http://www.w3.org/2000/svg"><path d="M4.053 13.295a21.287 21.287 0 0 0 7.084 5.528c1.036.49 2.421 1.07 3.965 1.169.095.004.187.008.283.008 1.035 0 1.867-.356 2.545-1.09.005-.004.013-.012.017-.02.241-.29.516-.552.803-.83.195-.186.395-.38.587-.58.886-.92.886-2.088-.009-2.98l-2.5-2.49c-.424-.44-.932-.671-1.464-.671-.533 0-1.044.232-1.481.667l-1.49 1.483a7.927 7.927 0 0 0-.411-.215 5.165 5.165 0 0 1-.458-.249c-1.356-.858-2.587-1.976-3.765-3.415-.594-.75-.994-1.38-1.273-2.022.392-.352.758-.721 1.111-1.082.125-.128.254-.257.383-.385.45-.448.69-.966.69-1.492s-.237-1.044-.69-1.492L6.74 1.902c-.145-.145-.283-.286-.424-.43A22.774 22.774 0 0 0 5.47.637C5.043.22 4.54 0 4.007 0c-.528 0-1.036.22-1.48.642L.97 2.192a3.18 3.18 0 0 0-.952 2.04c-.08.99.104 2.042.578 3.315.728 1.968 1.826 3.796 3.457 5.748Zm-3.02-8.977c.05-.55.262-1.01.661-1.409l1.548-1.541c.241-.232.507-.353.765-.353.254 0 .512.12.749.36.279.258.54.527.824.813.141.145.287.29.432.44l1.24 1.234c.258.257.39.518.39.775s-.132.518-.39.775c-.13.129-.258.261-.387.39-.387.39-.749.758-1.148 1.11l-.02.021c-.346.344-.292.672-.209.92.004.013.008.021.013.033.32.767.765 1.497 1.46 2.367 1.248 1.533 2.562 2.723 4.01 3.638.179.117.37.208.549.299.166.083.32.161.458.248l.045.025c.138.07.27.104.404.104.333 0 .549-.211.62-.282l1.555-1.55c.242-.24.504-.369.762-.369.316 0 .574.195.736.37l2.508 2.494c.5.497.495 1.036-.012 1.562-.175.187-.358.365-.553.552-.291.281-.595.572-.87.899-.478.514-1.048.754-1.784.754-.071 0-.146-.004-.217-.008-1.364-.087-2.633-.618-3.586-1.07a20.222 20.222 0 0 1-6.743-5.263c-1.551-1.86-2.595-3.593-3.286-5.45-.429-1.139-.59-2.055-.524-2.888Z" fill="#FF7010"/></svg>
